X:1
T:Title
%%score 1 { ( 2 4 ) | 3 }
L:1/8
Q:1/4=100
M:4/4
K:D
V:1 treble nm="Bright Piano"
V:2 bass nm="Bright Piano"
V:4 bass 
V:3 bass 
V:1
 z2 [DA]2 [DF]2 [CE]2 | D2 [CE]2 [B,G]2 [CG]2 | [DF]4 [CE]2 [CE]2 | [DF]2 [DF]2 [GB]2 [EA]2 | %4
 [FA]2 [E^G]2 [EA]4 | z2 [DA]2 [DF]2 [CE]2 | D2 [CE]2 [B,G]2 [CG]2 | [DF]4 [CE]2 [CE]2 | %8
 [DF]2 [DF]2 [GB]2 [EA]2 | [FA]2 [E^G]2 [EA]4 | z2 [Ee]2 [Ac]2 A2 | [Ad]2 [FA]2 [EG]2 [DF]2 | %12
 [CE]4 z2 [CE]2 | [DF]2 [DA]2 [DB]2 [Ge]2 | [Fd]2 [Ec]2 [Fd]4 |] %15
V:2
 z2 F,2 A,2 A,2 | F,2 A,2 G,2 A,2 | A,4 A,2 A,2 | A,2 B,2[K:treble] D2 C2 | D2 B,2 C4 | %5
 z2[K:bass] F,2 A,2 A,2 | F,2 A,2 G,2 A,2 | A,4 A,2 A,2 | A,2 B,2[K:treble] D2 C2 | D2 B,2 C4 | %10
 z2 C2 E2 C2 | D2 D2[K:bass] B,2 A,2 | z4 z2 A,2 | A,2 F,2 G,2 B,2 | A,2 A,2 A,4 |] %15
V:3
 z2 D,2 D,2 A,,2 | B,,2 A,,2 E,2 A,,2 | D,4 A,,2 A,,2 | D,2 B,,2 G,,2 A,,2 | D,2 E,2 A,,4 | %5
 z2 D,2 D,2 A,,2 | B,,2 A,,2 E,2 A,,2 | D,4 A,,2 A,,2 | D,2 B,,2 G,,2 A,,2 | D,2 E,2 A,,4 | %10
 z2 A,,2 A,2 A,G, | F,2 D,2 E,2 F,2 | z8 | F,2 D,2 z2 E,2 | z2 A,,2 D,4 |] %15
V:4
 x8 | x8 | x8 | x4[K:treble] x4 | x8 | x2[K:bass] x6 | x8 | x8 | x4[K:treble] x4 | x8 | x8 | %11
 x4[K:bass] x4 | A,4 z2 z G, | x8 | x8 |] %15

